X: 1754
T: Apples In Winter
R: jig
M: 6/8
K: Edorian
|:d/c/|BEE dEE|BAG FGE|D2 D FDF|ABc ded|
~B2 B BAB|def gfe|fdB AGF|GEE E2:|
|:d|efe edB|~g2 e fdB|~d2 d dAF|DFA def|
[1 efe edB|def g2a|bgb afa|gee e2:|
[2 edB def|gba g2e|fdB AGF|GEE E2||

